svgs/thin/laptop-slash.svg

<svg xmlns="http://www.w3.org/2000/svg" viewBox="0 0 640 512"><!--! Font Awesome Pro 6.3.0 by @fontawesome - https://fontawesome.com License - https://fontawesome.com/license (Commercial License) Copyright 2023 Fonticons, Inc. --><path d="M64 464c-26.47 0-48-21.53-48-48v-16h369.4L365.3 384L16 383.1c-8.812 0-16 7.203-16 16v16c0 35.2 28.81 64 64 64L486.1 480l-20.13-16H64zM528 48c17.67 0 32 14.33 32 32v264c0 4.418 3.582 8 8 8S576 348.4 576 344L575.1 80c0-26.4-21.6-48-48-48H153.9l20.13 16H528zM80 344V157.2L64 144.5V344C64 348.4 67.58 352 72 352S80 348.4 80 344zM636.1 497.7L12.99 1.73C11.53 .5664 9.771 0 8.025 0C5.674 0 3.336 1.027 1.738 3.012c-2.75 3.469-2.172 8.5 1.281 11.25l623.1 496C628.5 511.4 630.2 512 631.1 512c2.344 0 4.688-1.031 6.266-3.016C641 505.5 640.4 500.5 636.1 497.7z"/></svg>

<svg xmlns="http://www.w3.org/2000/svg" viewBox="0 0 640 512"><!-- Font Awesome Pro 6.0.0-alpha2 by @fontawesome - https://fontawesome.com License - https://fontawesome.com/license (Commercial License) --><path d="M64 464C37.533 464 16 442.467 16 416V400H385.441L365.314 384H16C7.188 384 0 391.203 0 400V416C0 451.203 28.812 480 64 480H486.086L465.959 464H64ZM528 48C545.674 48 560 62.326 560 80V344C560 348.418 563.582 352 568 352S576 348.418 576 344V80C576 53.6 554.4 32 528 32H153.922L174.051 48H528ZM80 344V157.207L64 144.488V344C64 348.418 67.582 352 72 352S80 348.418 80 344ZM636.98 497.734L12.988 1.73C11.525 0.566 9.771 0 8.025 0C5.674 0 3.336 1.027 1.738 3.012C-1.012 6.48 -0.434 11.512 3.02 14.262L627.012 510.266C628.496 511.438 630.246 512 631.996 512C634.34 512 636.684 510.969 638.262 508.984C641.012 505.516 640.434 500.484 636.98 497.734Z"/></svg>
